src/icons/28/Arrow Left & Right Circle Fill.svg

<svg fill="none" height="36" viewBox="0 0 36 36" width="36" xmlns="http://www.w3.org/2000/svg"><path clip-rule="evenodd" d="m3.85693 18c0-7.8109 6.33197-14.14285 14.14287-14.14285s14.1428 6.33195 14.1428 14.14285-6.3319 14.1429-14.1428 14.1429-14.14287-6.332-14.14287-14.1429zm11.96167-7.676c.3339.3339.3339.8753 0 1.2092l-1.7547 1.7547h9.5073c.4722 0 .855.3828.855.855s-.3828.855-.855.855h-9.5073l1.7547 1.7547c.3339.3339.3339.8752 0 1.2091s-.8752.3339-1.2091 0l-3.2143-3.2143c-.1604-.1603-.2504-.3778-.2504-.6045 0-.2268.09-.4443.2504-.6046l3.2143-3.2143c.3339-.3339.8752-.3339 1.2091 0zm4.5723 8.9234c-.3339-.3339-.3339-.8752 0-1.2091s.8753-.3339 1.2092 0l3.2143 3.2143c.1603.1603.2504.3778.2504.6045 0 .2268-.0901.4443-.2504.6046l-3.2143 3.2143c-.3339.3339-.8753.3339-1.2092 0s-.3339-.8752 0-1.2091l1.7547-1.7548h-9.5072c-.4722 0-.855-.3828-.855-.855s.3828-.855.855-.855h9.5072z" fill="#000" fill-rule="evenodd"/></svg>

<svg width="36" height="36" viewBox="0 0 36 36" fill="none" xmlns="http://www.w3.org/2000/svg">
<path fill-rule="evenodd" clip-rule="evenodd" d="M3.85693 18C3.85693 10.1891 10.1889 3.85715 17.9998 3.85715C25.8107 3.85715 32.1426 10.1891 32.1426 18C32.1426 25.8109 25.8107 32.1429 17.9998 32.1429C10.1889 32.1429 3.85693 25.8109 3.85693 18ZM15.8186 10.324C16.1525 10.6579 16.1525 11.1993 15.8186 11.5332L14.0639 13.2879H23.5712C24.0434 13.2879 24.4262 13.6707 24.4262 14.1429C24.4262 14.6151 24.0434 14.9979 23.5712 14.9979H14.0639L15.8186 16.7526C16.1525 17.0865 16.1525 17.6278 15.8186 17.9617C15.4847 18.2956 14.9434 18.2956 14.6095 17.9617L11.3952 14.7474C11.2348 14.5871 11.1448 14.3696 11.1448 14.1429C11.1448 13.9161 11.2348 13.6986 11.3952 13.5383L14.6095 10.324C14.9434 9.9901 15.4847 9.9901 15.8186 10.324ZM20.3909 19.2474C20.057 18.9135 20.057 18.3722 20.3909 18.0383C20.7248 17.7044 21.2662 17.7044 21.6001 18.0383L24.8144 21.2526C24.9747 21.4129 25.0648 21.6304 25.0648 21.8571C25.0648 22.0839 24.9747 22.3014 24.8144 22.4617L21.6001 25.676C21.2662 26.0099 20.7248 26.0099 20.3909 25.676C20.057 25.3421 20.057 24.8008 20.3909 24.4669L22.1456 22.7121H12.6384C12.1662 22.7121 11.7834 22.3293 11.7834 21.8571C11.7834 21.3849 12.1662 21.0021 12.6384 21.0021H22.1456L20.3909 19.2474Z" fill="black"/>
</svg>
